!!!OTL: N6d. Brahms, Piano Quintet in F minor, mvt. 3, mm. 173-end
!!!OMD: Allegro
**kern	**kern	**kern	**kern	**kern	**kern
*staff6	*staff5	*staff4	*staff3	*staff2	*staff1
*Ipiano	*Ipiano	*Icello	*Iviola	*Ivioln	*Ivioln
=173-	=173-	=173-	=173-	=173-	=173-
*clefF4	*clefG2	*clefF4	*clefC3	*clefG2	*clefG2
*k[b-e-a-]	*k[b-e-a-]	*k[b-e-a-]	*k[b-e-a-]	*k[b-e-a-]	*k[b-e-a-]
*f:	*f:	*f:	*f:	*f:	*f:
*M2/4	*M2/4	*M2/4	*M2/4	*M2/4	*M2/4
*MM116	*MM116	*MM116	*MM116	*MM116	*MM116
*	*8va	*	*	*	*
8FFF/L 8FF/	16r	8F\L	8f\L	8a-/L	8ff\L
.	16ff\LL 16aa-\ 16fff\	.	.	.	.
16r	16ff\JJ 16aa-\ 16fff\	16r	16r	16r	16r
16FFF/Jk 16FF/	16r	16F\Jk	16f\Jk	16a-/Jk	16ff\Jk
8DDD/L 8DD/	16r	8D\L	8an\L	8cc\L	8ff#\L
.	16ff#\LL 16ccc\ 16fff#\	.	.	.	.
16r	16ff#\JJ 16ccc\ 16fff#\	16r	16r	16r	16r
16DDD/Jk 16DD/	16r	16D\Jk	16a\Jk	16cc\Jk	16ff#\Jk
=174	=174	=174	=174	=174	=174
8GGG/L 8GG/	16r	8GG/L	8g\L	8b-\L	8gg\L
.	16gg\LL 16bb-\ 16ggg\	.	.	.	.
16r	16gg\JJ 16bb-\ 16ggg\	16r	16r	16r	16r
16GGG/Jk 16GG/	16r	16GG/Jk	16g\Jk	16b-\Jk	16gg\Jk
8CCC/L 8CC/	16r	8CC/L	8C/L 8c/	8g\L 8een\	8gg\L
.	16gg\LL 16eeen\ 16ggg\	.	.	.	.
16r	16gg\JJ 16eee\ 16ggg\	16r	16r	16r	16r
16CCC/Jk 16CC/	16r	16CC/Jk	16C/Jk 16c/	16g\Jk 16ee\	16gg\Jk
=175	=175	=175	=175	=175	=175
8FFF/L 8FF/	16r	8FF/L	8C/L 8c/	8a-\L 8ff\	8aa-\L
.	16aa-\LL 16fff\ 16aaa-\	.	.	.	.
16r	16aa-\JJ 16fff\ 16aaa-\	16r	16r	16r	16r
16FFF/Jk 16FF/	16r	16FF/Jk	16C/Jk 16c/	16a-\Jk 16ff\	16aa-\Jk
8AAA-/L 8AA-/	16r	8AA-/L	8C/L 8c/	8a-\L 8ff\	8ff\L
.	16ff\LL 16aa-\ 16fff\	.	.	.	.
16r	16ff\JJ 16aa-\ 16fff\	16r	16r	16r	16r
16AAA-/Jk 16AA-/	16r	16AA-/Jk	16C/Jk 16c/	16a-\Jk 16ff\	16ff\Jk
=176	=176	=176	=176	=176	=176
8CC/ 8C/	8ccc\ 8eeen\ 8cccc\	8C/L	16C/LL 16c/	8g/L 8een/	16cc/LL
*	*X8va	*	*	*	*
.	.	.	16c'/	.	16c'/
8r	8r	16r	16c'/JJ	16r	16c'/JJ
.	.	16C'/Jk	16r	16c'/Jk	16r
4r	4r	8C'/L	16r	8c'/L	16r
.	.	.	16c'\LL	.	16c'/LL
.	.	16r	16c'\JJ	16r	16c'/JJ
.	.	16C'/Jk	16r	16c'/Jk	16r
=177	=177	=177	=177	=177	=177
4r	4r	8C'/L	16r	8c'/L	16r
.	.	.	16c\LL	.	16c/LL
.	.	16r	16c\	16r	16c/
.	.	16C/Jk	16c\JJ	16c/Jk	16c/JJ
8.r	8.r	16D-/LL	16d-/LL	16d-/LL	16d-/LL
.	.	16C/	16c/	16c/	16c/
.	.	16AA-/	16A-/	16A-/	16A-/
(16FF/	[16d-/ 16f/ 16a-/ [16dd-/	16BB-/JJ	16B-/JJ	16B-/JJ	16B-/JJ
=178	=178	=178	=178	=178	=178
8AA-/) 8D-/	8.d-/L] 8.f/ 8.a-/ 8.dd-/]	8BBn/L	16Bn/LL	8Bn/L	16Bn/LL
.	.	.	16F/	.	16B/
16r	.	16r	16F/JJ	16r	16B/JJ
(16FF/	[16f/Jk 16a-/ 16dd-/ [16ff/	16FF/Jk	16r	16B/Jk	16r
8AA-/) 8F/	8.f\L] 8.a-\ 8.dd-\ 8.ff\]	8FF/L	16r	8B/L	16r
.	.	.	16F/LL	.	16B/LL
16r	.	16r	16F/JJ	16r	16B/JJ
(16FF/	[16a-\Jk 16dd-\ 16ff\ [16aa-\	16FF/Jk	16r	16B/Jk	16r
=179	=179	=179	=179	=179	=179
8AA-\) 8A-\	8.a-\L] 8.dd-\ 8.ff\ 8.aa-\]	8FF/L	16r	8Bn/L	16r
.	.	.	16F/LL	.	16Bn/LL
16r	.	16r	16F/	16r	16B/
(16F\	[16dd-\Jk 16ff\ 16aa-\ [16ddd-\	16FF/Jk	16F/JJ	16B/Jk	16B/JJ
8A-\) 8d-\	8.dd-\L] 8.ff\ 8.aa-\ 8.ddd-\]	16GG/LL	16G/LL	4B/	4B/
.	.	16FF/	16F/	.	.
16r	.	16EEn/	16En/	.	.
(16CC/	[16c\Jk 16en\ 16g\ [16cc\	16FF/JJ	16F/JJ	.	.
=180	=180	=180	=180	=180	=180
8GG'/) 8C'/	8c'/] 8en'/ 8g'/ 8cc'/]	8C/L	16c\LL	8c/L	16c/LL
.	.	.	16c\	.	16c/
8r	8r	16r	16c\JJ	16r	16c/JJ
.	.	16C/Jk	16r	16c/Jk	16r
4r	4r	8C/L	16r	8c/L	16r
.	.	.	16c\LL	.	16c/LL
.	.	16r	16c\JJ	16r	16c/JJ
.	.	16C/Jk	16r	16c/Jk	16r
=181	=181	=181	=181	=181	=181
4r	4r	8C/L	16r	8c/L	16r
.	.	.	16c\LL	.	16c/LL
.	.	16r	16c\	16r	16c/
.	.	16C/Jk	16c\JJ	16c/Jk	16c/JJ
8.r	8.r	16D-/LL	16d-/LL	16d-/LL	16d-/LL
.	.	16C/	16c/	16c/	16c/
.	.	16AA-/	16A-/	16A-/	16A-/
(16FF/	[16d-/ 16f/ 16a-/ [16dd-/	16BB-/JJ	16B-/JJ	16B-/JJ	16B-/JJ
=182	=182	=182	=182	=182	=182
8AA-/) 8D-/	8.d-/L] 8.f/ 8.a-/ 8.dd-/]	8BBn/L	16Bn/LL	8Bn/L	16Bn/LL
.	.	.	16F/	.	16B/
16r	.	16r	16F/JJ	16r	16B/JJ
(16FF/	[16f/Jk 16a-/ 16dd-/ [16ff/	16FF/Jk	16r	16B/Jk	16r
8AA-/) 8F/	8.f\L] 8.a-\ 8.dd-\ 8.ff\]	8FF/L	16r	8B/L	16r
.	.	.	16F/LL	.	16B/LL
16r	.	16r	16F/JJ	16r	16B/JJ
(16FF/	[16a-\Jk 16dd-\ 16ff\ [16aa-\	16FF/Jk	16r	16B/Jk	16r
=183	=183	=183	=183	=183	=183
8AA-\) 8A-\	8.a-\L] 8.dd-\ 8.ff\ 8.aa-\]	8FF/L	16r	8Bn/L	16r
.	.	.	16F/LL	.	16Bn/LL
16r	.	16r	16F/	16r	16B/
(16F\	[16dd-\Jk 16ff\ 16aa-\ [16ddd-\	16FF/Jk	16F/JJ	16B/Jk	16B/JJ
8A-\) 8d-\	8.dd-\L] 8.ff\ 8.aa-\ 8.ddd-\]	16GG/LL	16G/LL	4B/	4B/
.	.	16FF/	16F/	.	.
16r	.	16EEn/	16En/	.	.
(16CC/	[16c\Jk 16en\ 16g\ [16cc\	16FF/JJ	16F/JJ	.	.
=184	=184	=184	=184	=184	=184
8GG'/) 8C'/	8c'/] 8e'/ 8g'/ 8cc'/]	8C/L	16c\LL	8c/L	16c/LL
.	.	.	16c\	.	16c/
8r	8r	16r	16c\	16r	16c/
.	.	16C/Jk	16c\JJ	16c/Jk	16c/JJ
8r	8r	16D-/LL	16d-/LL	16d-/LL	16d-/LL
.	.	16C/JJ	16c/	16c/	16c/
(8FFF/ 8FF/	(8dd-\ 8ff\ 8aa-\ 8ddd-\	8r	16A-/	16A-/	16A-/
.	.	.	16B-/JJ	16B-/JJ	16B-/JJ
=185	=185	=185	=185	=185	=185
8CC'/)	8en'/) 8g'/ 8cc'/	8C/L	16c\LL	8c/L	16c/LL
.	.	.	16c\	.	16c/
8r	8r	16r	16c\	16r	16c/
.	.	16C/Jk	16c\JJ	16c/Jk	16c/JJ
8r	8r	16D-/LL	16d-/LL	16d-/LL	16d-/LL
.	.	16C/JJ	16c/	16c/	16c/
(8FFF/ 8FF/	(8ff\ 8aa-\ 8ddd-\ 8fff\	8r	16A-/	16A-/	16A-/
.	.	.	16B-/JJ	16B-/JJ	16B-/JJ
=186	=186	=186	=186	=186	=186
8CC'/)	8en'/) 8g'/ 8cc'/	8C/L	16c\LL	8c/L	16c/LL
.	.	.	16c\	.	16c/
8r	8r	16r	16c\	16r	16c/
.	.	16C/Jk	16c\JJ	16c/Jk	16c/JJ
8.r	8.r	16D-/LL	16d-/LL	16d-/LL	16d-/LL
.	.	16C/JJ	16c/	16c/	16c/
.	.	8r	16A-/	16A-/	16A-/
(16FFF/ 16FF/	16aa-\ 16fff\ 16aaa-\	.	16B-/JJ	16B-/JJ	16B-/JJ
=187	=187	=187	=187	=187	=187
8CC/L)	8gg'\L 8eeen'\ 8ggg'\	16D-^/LL	16d-^/LL	16d-^/LL	16d-^/LL
.	.	16C/JJ	16c/	16c/	16c/
16r	16r	8r	16A-/	16A-/	16A-/
(16FFF/Jk 16FF/	16ff'\Jk 16aa-'\ 16fff'\	.	16B-/JJ	16B-/JJ	16B-/JJ
8CC/L)	8een'\L 8gg'\ 8eee'\	16D-^/LL	16d-^/LL	16d-^/LL	16d-^/LL
.	.	16C/JJ	16c/	16c/	16c/
16r	16r	8r	16A-/	16A-/	16A-/
(16FFF/Jk 16FF/	16dd-'\Jk 16ff'\ 16ddd-'\	.	16B-/JJ	16B-/JJ	16B-/JJ
=188	=188	=188	=188	=188	=188
8CC/L)	8cc'\L 8een'\ 8ccc'\	16D-^/LL	16d-^/LL	16d-^/LL	16d-^/LL
.	.	16C/JJ	16c/	16c/	16c/
16r	16r	8r	16A-/	16A-/	16A-/
(16FFF/Jk 16FF/	16a-'\Jk 16ff'\ 16aa-'\	.	16B-/JJ	16B-/JJ	16B-/JJ
8CC/L)	8g'\L 8ee'\ 8gg'\	16D-^/LL	16d-^/LL	16d-^/LL	16d-^/LL
.	.	16C/JJ	16c/	16c/	16c/
16r	16r	8r	16A-/	16A-/	16A-/
(16FFF/Jk 16FF/	16f'\Jk 16a-'\ 16ff'\	.	16B-/JJ	16B-/JJ	16B-/JJ
=189	=189	=189	=189	=189	=189
8CC/L)	8en'/L 8g'/ 8een'/	16D-^/LL	16d-^/LL	16d-^/LL	16d-^/LL
.	.	16C/JJ	16c/	16c/	16c/
16r	16r	8r	16A-/	16A-/	16A-/
(16FFF/Jk 16FF/	16d-'/Jk 16f'/ 16dd-'/	.	16B-/JJ	16B-/JJ	16B-/JJ
8CC/L)	8c'/L 8e'/ 8cc'/	16D-^/LL	16d-^/LL	16d-^/LL	16d-^/LL
.	.	16C/JJ	16c/	16c/	16c/
16r	16r	8r	16A-/	16A-/	16A-/
(16FFF/Jk 16FF/	16A-'/Jk 16f'/ 16a-'/	.	16B-/JJ	16B-/JJ	16B-/JJ
=190	=190	=190	=190	=190	=190
4.CC^/) 4.GG^/	4.G^/ 4.en^/ 4.g^/	16D-^/LL	16d-^/LL	16d-^/LL	16d-^/LL
.	.	16C/	16c/	16c/JJ	16c/JJ
.	.	16CC/	16C/	8r	8r
.	.	16GG/JJ	16G/JJ	.	.
.	.	16D-^/LL	16d-^/LL	16d-^/LL	16d-^/LL
.	.	16C/	16c/	16c/JJ	16c/JJ
8r	8r	16CC/	16C/	8r	8r
.	.	16GG/JJ	16G/JJ	.	.
=191	=191	=191	=191	=191	=191
4.CC^/ 4.GG^/	4.G^/ 4.en^/ 4.g^/	16D-^/LL	16d-^/LL	16d-^/LL	16d-^/LL
.	.	16C/	16c/	16c/JJ	16c/JJ
.	.	16CC/	16C/	8r	8r
.	.	16GG/JJ	16G/JJ	.	.
.	.	16D-^/LL	16d-^/LL	16d-^/LL	16d-^/LL
.	.	16C/	16c/	16c/JJ	16c/JJ
8r	8r	16CC/	16C/	8r	8r
.	.	16GG/JJ	16G/JJ	.	.
=192	=192	=192	=192	=192	=192
[2CC^/ [2GG^/	[2G^/ [2en^/ [2g^/	16D-^/LK	16d-^\LK	16d-^/LK	16d-^/LK
.	.	[8.C/J	[8.c\J	[8.c/J	[8.c/J
.	.	4C/_	4c\_	4c/_	4c/_
=193	=193	=193	=193	=193	=193
8CC/] 8GG/]	8G/] 8e/] 8g/]	8C/]	8c\]	8c/]	8c/]
8r	8r	8r	8r	8r	8r
==	==	==	==	==	==
*-	*-	*-	*-	*-	*-
!!!hum2abc: -q -s 0.80 --spacing 2.0 -p "%%staves [1 2 3 4]{5 6}"
